X:2475
T:Cancioneiro de Casto Sampedro: N\'umero 311
T:Muiñeira de Pontevedra
O:Galicia (Spain)
B:Cancioneiro de Casto Sampedro
Z:Transcrito por Jos\'e J. Presedo
Z:Covertido de Midi a abc por Antonio-Nil
N:http://www.arrakis.es/~jpresedo/
M: 4/4
L: 1/8
Q:1/4=95
K:C % 0 sharps
z2 z/2c'/2<c'/2b/2 c'/2b/2a/2b/2 a/2a3/2-|a/2f/2e/2d/2 e/2f/2f/2e/2 d/2e/2c c'c'/2b/2|c'/2b/2a/2b/2 a/2a2f/2e/2d/2 e/2f/2f/2e/2|d/2c2c'/2c'/2b/2 c'/2b/2a/2b/2 a/2a3/2-|
a/2f/2e/2d/2 e/2f/2f/2e/2 d/2e/2c c'c'/2b/2|c'/2b/2a/2b/2 a/2a2f/2e/2d/2 e/2f/2f/2e/2|d/2c2-c/2d/2ec/2d B/2c3/2-|c/2c/2d/2e/2 d/2e/2g/2f/2 d/2e<cc/2d/2e/2-|
e/2c/2d B<c d/2c/2d/2e/2 d/2e/2g/2f/2|d/2c2c/2d/2ec/2d B/2c3/2-|c/2c/2d/2e/2 d/2e/2g/2f/2 d/2e<cc/2d/2e/2-|e/2c/2d B<c d/2c/2d/2e/2 d/2e/2g/2f/2|
d/2c2c'/2c'/2b/2 c'/2b/2a/2b/2 a/2a3/2-|a/2f/2e/2d/2 e/2f/2f/2e/2 d/2e/2c c'c'/2b/2|c'/2b/2a/2b/2 a/2a2f/2e/2d/2 e/2f/2f/2e/2|d/2c2c'/2c'/2b/2 c'/2b/2a/2b/2 a/2a3/2-|
a/2f/2e/2d/2 e/2f/2f/2e/2 d/2e/2c c'c'/2b/2|c'/2b/2a/2b/2 a/2a2f/2e/2d/2 e/2f/2f/2e/2|d/2c2-c/2d/2ec/2d B/2c3/2-|c/2c/2d/2e/2 d/2e/2g/2f/2 d/2e<cc/2d/2e/2-|
e/2c/2d B<c d/2c/2d/2e/2 d/2e/2g/2f/2|d/2c2c/2d/2ec/2d B/2c3/2-|c/2c/2d/2e/2 d/2e/2g/2f/2 d/2e<cc/2d/2e/2-|e/2c/2d B<c d/2c/2d/2e/2 d/2e/2g/2f/2|
d/2c2


